resources/icons/20px/rect-width.svg

<svg width="20" height="20" viewBox="0 0 20 20" fill="none" xmlns="http://www.w3.org/2000/svg">
<path fill-rule="evenodd" clip-rule="evenodd" d="M18 16H2V4H18V16ZM1 18C0.447716 18 0 17.5523 0 17V3C0 2.44772 0.447715 2 1 2H19C19.5523 2 20 2.44772 20 3V17C20 17.5523 19.5523 18 19 18H1ZM7.29467 6.29259C7.68479 5.90247 8.31729 5.90247 8.70741 6.29259C9.09753 6.68271 9.09753 7.31521 8.70741 7.70533L6.41274 10L8.70741 12.2947C9.09753 12.6848 9.09753 13.3173 8.70741 13.7074C8.31729 14.0975 7.68479 14.0975 7.29467 13.7074L4.33227 10.745C4.31879 10.7329 4.30556 10.7204 4.29259 10.7074C4.09727 10.5121 3.99974 10.256 4 10C3.99974 9.744 4.09727 9.48791 4.29259 9.29259C4.30556 9.27962 4.31879 9.26708 4.33228 9.25498L7.29467 6.29259ZM11.2926 6.29259C11.6827 5.90247 12.3152 5.90247 12.7053 6.29259L15.6677 9.25498C15.6812 9.26708 15.6944 9.27962 15.7074 9.29259C15.9027 9.48791 16.0003 9.744 16 10C16.0003 10.256 15.9027 10.5121 15.7074 10.7074C15.6944 10.7204 15.6812 10.7329 15.6677 10.745L12.7053 13.7074C12.3152 14.0975 11.6827 14.0975 11.2926 13.7074C10.9025 13.3173 10.9025 12.6848 11.2926 12.2947L13.5873 10L11.2926 7.70533C10.9025 7.31521 10.9025 6.68271 11.2926 6.29259Z" fill="black"/>
</svg>

<svg xmlns="http://www.w3.org/2000/svg" viewBox="0 0 20 20">
  <path d="M18 16H2V4h16zM1 18a1 1 0 0 1-1-1V3a1 1 0 0 1 1-1h18a1 1 0 0 1 1 1v14a1 1 0 0 1-1 1zM7.295 6.293a.999.999 0 1 1 1.412 1.412L6.413 10l2.294 2.295a.999.999 0 1 1-1.412 1.412l-2.963-2.962A1 1 0 0 1 4 10a1 1 0 0 1 .332-.745zm3.998 0a1 1 0 0 1 1.412 0l2.963 2.962.04.038A1 1 0 0 1 16 10a1 1 0 0 1-.332.745l-2.963 2.962a.999.999 0 0 1-1.412-1.412L13.587 10l-2.294-2.295a1 1 0 0 1 0-1.412"/>
</svg>
